flaticon/household/office-chair-10.svg

<svg xmlns="http://www.w3.org/2000/svg" width="32" height="32" viewBox="0 0 24 24">
    <path d="M 20 8.800781 L 19.199219 8.800781 C 18.832031 8.800781 18.503906 8.972656 18.285156 9.234375 L 16.804688 1.308594 C 16.664062 0.550781 16 0 15.226562 0 L 8.773438 0 C 8 0 7.335938 0.550781 7.195312 1.308594 L 5.714844 9.234375 C 5.496094 8.972656 5.167969 8.800781 4.800781 8.800781 L 4 8.800781 C 3.339844 8.800781 2.800781 9.339844 2.800781 10 C 2.800781 10.660156 3.339844 11.199219 4 11.199219 L 4 12 C 4 13.007812 4.753906 13.835938 5.726562 13.972656 C 5.945312 14.457031 6.433594 14.800781 7 14.800781 L 10.398438 14.800781 L 10.398438 16 L 10.800781 16 L 10.800781 17.199219 L 11.601562 17.199219 L 11.601562 18 L 10.800781 18 L 10.800781 18.480469 L 5.910156 19.609375 C 5.898438 19.613281 5.890625 19.621094 5.878906 19.625 C 5.851562 19.632812 5.828125 19.644531 5.804688 19.65625 C 5.78125 19.671875 5.761719 19.683594 5.742188 19.699219 C 5.722656 19.714844 5.707031 19.734375 5.691406 19.753906 C 5.675781 19.773438 5.660156 19.792969 5.648438 19.816406 C 5.636719 19.839844 5.628906 19.863281 5.621094 19.886719 C 5.613281 19.914062 5.609375 19.9375 5.605469 19.964844 C 5.605469 19.976562 5.601562 19.988281 5.601562 20 L 5.601562 20.421875 C 4.703125 20.519531 4 21.277344 4 22.199219 C 4 23.191406 4.808594 24 5.800781 24 C 6.792969 24 7.601562 23.191406 7.601562 22.199219 C 7.601562 21.417969 7.097656 20.757812 6.398438 20.511719 L 6.398438 20.316406 L 10.800781 19.304688 L 10.800781 19.433594 L 9.832031 20.402344 C 9.820312 20.402344 9.8125 20.398438 9.800781 20.398438 C 8.808594 20.398438 8 21.207031 8 22.199219 C 8 23.191406 8.808594 24 9.800781 24 C 10.792969 24 11.601562 23.191406 11.601562 22.199219 C 11.601562 21.539062 11.238281 20.96875 10.710938 20.65625 L 11.367188 20 L 12.632812 20 L 13.289062 20.65625 C 12.761719 20.96875 12.398438 21.539062 12.398438 22.199219 C 12.398438 23.191406 13.207031 24 14.199219 24 C 15.191406 24 16 23.191406 16 22.199219 C 16 21.207031 15.191406 20.398438 14.199219 20.398438 C 14.1875 20.398438 14.179688 20.402344 14.167969 20.402344 L 13.199219 19.433594 L 13.199219 19.304688 L 17.601562 20.316406 L 17.601562 20.511719 C 16.902344 20.757812 16.398438 21.417969 16.398438 22.199219 C 16.398438 23.191406 17.207031 24 18.199219 24 C 19.191406 24 20 23.191406 20 22.199219 C 20 21.277344 19.296875 20.519531 18.398438 20.421875 L 18.398438 20 C 18.398438 19.988281 18.394531 19.976562 18.394531 19.964844 C 18.390625 19.9375 18.386719 19.914062 18.378906 19.886719 C 18.371094 19.863281 18.363281 19.839844 18.351562 19.816406 C 18.339844 19.792969 18.324219 19.773438 18.308594 19.753906 C 18.292969 19.734375 18.277344 19.714844 18.257812 19.699219 C 18.238281 19.683594 18.21875 19.671875 18.195312 19.65625 C 18.171875 19.644531 18.148438 19.632812 18.121094 19.625 C 18.109375 19.621094 18.101562 19.613281 18.089844 19.609375 L 13.199219 18.480469 L 13.199219 18 L 12.398438 18 L 12.398438 17.199219 L 13.199219 17.199219 L 13.199219 16 L 13.601562 16 L 13.601562 14.964844 L 14.917969 16.28125 C 14.953125 16.320312 14.996094 16.347656 15.046875 16.371094 C 15.097656 16.390625 15.148438 16.398438 15.199219 16.398438 L 16.398438 16.398438 C 16.621094 16.398438 16.800781 16.222656 16.800781 16 C 16.800781 15.777344 16.621094 15.601562 16.398438 15.601562 L 15.367188 15.601562 L 14.566406 14.800781 L 17 14.800781 C 17.566406 14.800781 18.054688 14.457031 18.273438 13.972656 C 19.246094 13.835938 20 13.007812 20 12 L 20 11.199219 C 20.660156 11.199219 21.199219 10.660156 21.199219 10 C 21.199219 9.339844 20.660156 8.800781 20 8.800781 Z M 6.800781 22.199219 C 6.800781 22.75 6.351562 23.199219 5.800781 23.199219 C 5.25 23.199219 4.800781 22.75 4.800781 22.199219 C 4.800781 21.648438 5.25 21.199219 5.800781 21.199219 C 6.351562 21.199219 6.800781 21.648438 6.800781 22.199219 Z M 9.800781 23.199219 C 9.25 23.199219 8.800781 22.75 8.800781 22.199219 C 8.800781 21.648438 9.25 21.199219 9.800781 21.199219 C 10.351562 21.199219 10.800781 21.648438 10.800781 22.199219 C 10.800781 22.75 10.351562 23.199219 9.800781 23.199219 Z M 15.199219 22.199219 C 15.199219 22.75 14.75 23.199219 14.199219 23.199219 C 13.648438 23.199219 13.199219 22.75 13.199219 22.199219 C 13.199219 21.648438 13.648438 21.199219 14.199219 21.199219 C 14.75 21.199219 15.199219 21.648438 15.199219 22.199219 Z M 19.199219 22.199219 C 19.199219 22.75 18.75 23.199219 18.199219 23.199219 C 17.648438 23.199219 17.199219 22.75 17.199219 22.199219 C 17.199219 21.648438 17.648438 21.199219 18.199219 21.199219 C 18.75 21.199219 19.199219 21.648438 19.199219 22.199219 Z M 11.601562 18.800781 L 12.398438 18.800781 L 12.398438 19.199219 L 11.601562 19.199219 Z M 7.203125 5.621094 C 7.214844 5.832031 7.386719 6 7.601562 6 C 7.820312 6 8 5.820312 8 5.601562 C 8 5.378906 7.820312 5.199219 7.601562 5.199219 C 7.4375 5.199219 7.300781 5.296875 7.238281 5.433594 L 7.582031 3.597656 C 7.589844 3.597656 7.59375 3.601562 7.601562 3.601562 C 7.820312 3.601562 8 3.421875 8 3.199219 C 8 3.023438 7.882812 2.878906 7.726562 2.824219 L 7.980469 1.453125 C 8.050781 1.074219 8.386719 0.800781 8.773438 0.800781 L 9.601562 0.800781 C 9.601562 1.019531 9.777344 1.199219 10 1.199219 C 10.222656 1.199219 10.398438 1.019531 10.398438 0.800781 L 12 0.800781 C 12 1.019531 12.179688 1.199219 12.398438 1.199219 C 12.621094 1.199219 12.800781 1.019531 12.800781 0.800781 L 14.398438 0.800781 C 14.398438 1.019531 14.578125 1.199219 14.800781 1.199219 C 15.019531 1.199219 15.199219 1.019531 15.199219 0.800781 L 15.226562 0.800781 C 15.613281 0.800781 15.949219 1.074219 16.019531 1.453125 L 16.046875 1.609375 C 16.03125 1.609375 16.015625 1.601562 16 1.601562 C 15.777344 1.601562 15.601562 1.777344 15.601562 2 C 15.601562 2.222656 15.777344 2.398438 16 2.398438 C 16.070312 2.398438 16.128906 2.378906 16.1875 2.347656 L 17.167969 7.605469 C 16.960938 7.625 16.800781 7.789062 16.800781 8 C 16.800781 8.222656 16.980469 8.398438 17.199219 8.398438 C 17.238281 8.398438 17.273438 8.386719 17.308594 8.378906 L 17.585938 9.855469 C 17.609375 9.984375 17.597656 10.113281 17.5625 10.234375 C 17.5 10.097656 17.359375 10 17.199219 10 C 16.980469 10 16.800781 10.179688 16.800781 10.398438 C 16.800781 10.558594 16.894531 10.695312 17.03125 10.761719 C 16.953125 10.785156 16.875 10.800781 16.792969 10.800781 L 7.207031 10.800781 C 6.964844 10.800781 6.738281 10.695312 6.585938 10.507812 C 6.433594 10.324219 6.371094 10.089844 6.414062 9.855469 L 6.464844 9.585938 C 6.652344 9.554688 6.800781 9.398438 6.800781 9.199219 C 6.800781 9.054688 6.71875 8.929688 6.597656 8.859375 Z M 12.398438 12 L 11.601562 12 L 11.601562 11.601562 L 12.398438 11.601562 Z M 3.601562 10 C 3.601562 9.78125 3.777344 9.601562 4 9.601562 L 4.800781 9.601562 C 5.019531 9.601562 5.199219 9.78125 5.199219 10 C 5.199219 10.21875 5.019531 10.398438 4.800781 10.398438 L 4 10.398438 C 3.777344 10.398438 3.601562 10.21875 3.601562 10 Z M 4.800781 12 L 4.800781 11.199219 C 5.199219 11.199219 5.546875 11.003906 5.765625 10.703125 C 5.820312 10.816406 5.886719 10.921875 5.96875 11.019531 C 6.273438 11.386719 6.726562 11.601562 7.207031 11.601562 L 10.800781 11.601562 L 10.800781 12 L 7 12 C 6.320312 12 5.75 12.488281 5.625 13.136719 C 5.148438 12.976562 4.800781 12.53125 4.800781 12 Z M 12.800781 15.199219 L 11.199219 15.199219 L 11.199219 14.800781 L 12.800781 14.800781 Z M 12.398438 16.398438 L 11.601562 16.398438 L 11.601562 16 L 12.398438 16 Z M 17 14 L 7 14 C 6.667969 14 6.398438 13.730469 6.398438 13.398438 C 6.398438 13.070312 6.667969 12.800781 7 12.800781 L 17 12.800781 C 17.332031 12.800781 17.601562 13.070312 17.601562 13.398438 C 17.601562 13.730469 17.332031 14 17 14 Z M 19.199219 12 C 19.199219 12.53125 18.851562 12.976562 18.375 13.136719 C 18.25 12.488281 17.679688 12 17 12 L 13.199219 12 L 13.199219 11.601562 L 16.792969 11.601562 C 17.273438 11.601562 17.726562 11.386719 18.03125 11.019531 C 18.113281 10.921875 18.179688 10.816406 18.234375 10.703125 C 18.453125 11.003906 18.800781 11.199219 19.199219 11.199219 Z M 20 10.398438 L 19.199219 10.398438 C 18.980469 10.398438 18.800781 10.21875 18.800781 10 C 18.800781 9.78125 18.980469 9.601562 19.199219 9.601562 L 20 9.601562 C 20.222656 9.601562 20.398438 9.78125 20.398438 10 C 20.398438 10.21875 20.222656 10.398438 20 10.398438 Z M 20 10.398438"/>
    <path d="M9.199219 2C9.199219 2.222656 9.019531 2.398438 8.800781 2.398438 8.578125 2.398438 8.398438 2.222656 8.398438 2 8.398438 1.777344 8.578125 1.601562 8.800781 1.601562 9.019531 1.601562 9.199219 1.777344 9.199219 2zM9.199219 4.398438C9.199219 4.621094 9.019531 4.800781 8.800781 4.800781 8.578125 4.800781 8.398438 4.621094 8.398438 4.398438 8.398438 4.179688 8.578125 4 8.800781 4 9.019531 4 9.199219 4.179688 9.199219 4.398438zM10.398438 3.199219C10.398438 3.421875 10.222656 3.601562 10 3.601562 9.777344 3.601562 9.601562 3.421875 9.601562 3.199219 9.601562 2.980469 9.777344 2.800781 10 2.800781 10.222656 2.800781 10.398438 2.980469 10.398438 3.199219zM10.398438 5.601562C10.398438 5.820312 10.222656 6 10 6 9.777344 6 9.601562 5.820312 9.601562 5.601562 9.601562 5.378906 9.777344 5.199219 10 5.199219 10.222656 5.199219 10.398438 5.378906 10.398438 5.601562zM11.601562 2C11.601562 2.222656 11.421875 2.398438 11.199219 2.398438 10.980469 2.398438 10.800781 2.222656 10.800781 2 10.800781 1.777344 10.980469 1.601562 11.199219 1.601562 11.421875 1.601562 11.601562 1.777344 11.601562 2zM14 2C14 2.222656 13.820312 2.398438 13.601562 2.398438 13.378906 2.398438 13.199219 2.222656 13.199219 2 13.199219 1.777344 13.378906 1.601562 13.601562 1.601562 13.820312 1.601562 14 1.777344 14 2zM11.601562 4.398438C11.601562 4.621094 11.421875 4.800781 11.199219 4.800781 10.980469 4.800781 10.800781 4.621094 10.800781 4.398438 10.800781 4.179688 10.980469 4 11.199219 4 11.421875 4 11.601562 4.179688 11.601562 4.398438zM14 4.398438C14 4.621094 13.820312 4.800781 13.601562 4.800781 13.378906 4.800781 13.199219 4.621094 13.199219 4.398438 13.199219 4.179688 13.378906 4 13.601562 4 13.820312 4 14 4.179688 14 4.398438zM12.800781 3.199219C12.800781 3.421875 12.621094 3.601562 12.398438 3.601562 12.179688 3.601562 12 3.421875 12 3.199219 12 2.980469 12.179688 2.800781 12.398438 2.800781 12.621094 2.800781 12.800781 2.980469 12.800781 3.199219zM15.199219 3.199219C15.199219 3.421875 15.019531 3.601562 14.800781 3.601562 14.578125 3.601562 14.398438 3.421875 14.398438 3.199219 14.398438 2.980469 14.578125 2.800781 14.800781 2.800781 15.019531 2.800781 15.199219 2.980469 15.199219 3.199219zM12.800781 5.601562C12.800781 5.820312 12.621094 6 12.398438 6 12.179688 6 12 5.820312 12 5.601562 12 5.378906 12.179688 5.199219 12.398438 5.199219 12.621094 5.199219 12.800781 5.378906 12.800781 5.601562zM15.199219 5.601562C15.199219 5.820312 15.019531 6 14.800781 6 14.578125 6 14.398438 5.820312 14.398438 5.601562 14.398438 5.378906 14.578125 5.199219 14.800781 5.199219 15.019531 5.199219 15.199219 5.378906 15.199219 5.601562zM16.398438 4.398438C16.398438 4.621094 16.222656 4.800781 16 4.800781 15.777344 4.800781 15.601562 4.621094 15.601562 4.398438 15.601562 4.179688 15.777344 4 16 4 16.222656 4 16.398438 4.179688 16.398438 4.398438zM9.199219 6.800781C9.199219 7.019531 9.019531 7.199219 8.800781 7.199219 8.578125 7.199219 8.398438 7.019531 8.398438 6.800781 8.398438 6.578125 8.578125 6.398438 8.800781 6.398438 9.019531 6.398438 9.199219 6.578125 9.199219 6.800781zM9.199219 9.199219C9.199219 9.421875 9.019531 9.601562 8.800781 9.601562 8.578125 9.601562 8.398438 9.421875 8.398438 9.199219 8.398438 8.980469 8.578125 8.800781 8.800781 8.800781 9.019531 8.800781 9.199219 8.980469 9.199219 9.199219zM8 8C8 8.222656 7.820312 8.398438 7.601562 8.398438 7.378906 8.398438 7.199219 8.222656 7.199219 8 7.199219 7.777344 7.378906 7.601562 7.601562 7.601562 7.820312 7.601562 8 7.777344 8 8zM10.398438 8C10.398438 8.222656 10.222656 8.398438 10 8.398438 9.777344 8.398438 9.601562 8.222656 9.601562 8 9.601562 7.777344 9.777344 7.601562 10 7.601562 10.222656 7.601562 10.398438 7.777344 10.398438 8zM8 10.398438C8 10.621094 7.820312 10.800781 7.601562 10.800781 7.378906 10.800781 7.199219 10.621094 7.199219 10.398438 7.199219 10.179688 7.378906 10 7.601562 10 7.820312 10 8 10.179688 8 10.398438zM10.398438 10.398438C10.398438 10.621094 10.222656 10.800781 10 10.800781 9.777344 10.800781 9.601562 10.621094 9.601562 10.398438 9.601562 10.179688 9.777344 10 10 10 10.222656 10 10.398438 10.179688 10.398438 10.398438zM11.601562 6.800781C11.601562 7.019531 11.421875 7.199219 11.199219 7.199219 10.980469 7.199219 10.800781 7.019531 10.800781 6.800781 10.800781 6.578125 10.980469 6.398438 11.199219 6.398438 11.421875 6.398438 11.601562 6.578125 11.601562 6.800781zM14 6.800781C14 7.019531 13.820312 7.199219 13.601562 7.199219 13.378906 7.199219 13.199219 7.019531 13.199219 6.800781 13.199219 6.578125 13.378906 6.398438 13.601562 6.398438 13.820312 6.398438 14 6.578125 14 6.800781zM11.601562 9.199219C11.601562 9.421875 11.421875 9.601562 11.199219 9.601562 10.980469 9.601562 10.800781 9.421875 10.800781 9.199219 10.800781 8.980469 10.980469 8.800781 11.199219 8.800781 11.421875 8.800781 11.601562 8.980469 11.601562 9.199219zM14 9.199219C14 9.421875 13.820312 9.601562 13.601562 9.601562 13.378906 9.601562 13.199219 9.421875 13.199219 9.199219 13.199219 8.980469 13.378906 8.800781 13.601562 8.800781 13.820312 8.800781 14 8.980469 14 9.199219zM12.800781 8C12.800781 8.222656 12.621094 8.398438 12.398438 8.398438 12.179688 8.398438 12 8.222656 12 8 12 7.777344 12.179688 7.601562 12.398438 7.601562 12.621094 7.601562 12.800781 7.777344 12.800781 8zM15.199219 8C15.199219 8.222656 15.019531 8.398438 14.800781 8.398438 14.578125 8.398438 14.398438 8.222656 14.398438 8 14.398438 7.777344 14.578125 7.601562 14.800781 7.601562 15.019531 7.601562 15.199219 7.777344 15.199219 8zM12.800781 10.398438C12.800781 10.621094 12.621094 10.800781 12.398438 10.800781 12.179688 10.800781 12 10.621094 12 10.398438 12 10.179688 12.179688 10 12.398438 10 12.621094 10 12.800781 10.179688 12.800781 10.398438zM15.199219 10.398438C15.199219 10.621094 15.019531 10.800781 14.800781 10.800781 14.578125 10.800781 14.398438 10.621094 14.398438 10.398438 14.398438 10.179688 14.578125 10 14.800781 10 15.019531 10 15.199219 10.179688 15.199219 10.398438zM16.398438 6.800781C16.398438 7.019531 16.222656 7.199219 16 7.199219 15.777344 7.199219 15.601562 7.019531 15.601562 6.800781 15.601562 6.578125 15.777344 6.398438 16 6.398438 16.222656 6.398438 16.398438 6.578125 16.398438 6.800781zM16.398438 9.199219C16.398438 9.421875 16.222656 9.601562 16 9.601562 15.777344 9.601562 15.601562 9.421875 15.601562 9.199219 15.601562 8.980469 15.777344 8.800781 16 8.800781 16.222656 8.800781 16.398438 8.980469 16.398438 9.199219zM16.398438 9.199219"/>
</svg>

<svg xmlns="http://www.w3.org/2000/svg" width="32" height="32" viewBox="0 0 24 24">
    <path d="M20 8.8h-.8c-.368 0-.696.173-.915.434l-1.48-7.925A1.604 1.604 0 0 0 15.227 0H8.773C8 0 7.336.55 7.195 1.309l-1.48 7.925a1.193 1.193 0 0 0-.914-.433H4c-.66 0-1.2.539-1.2 1.199s.54 1.2 1.2 1.2v.8a2 2 0 0 0 1.727 1.973c.218.484.707.828 1.273.828h3.398V16h.403v1.2h.8v.8h-.8v.48l-4.89 1.13c-.013.003-.02.011-.032.015-.027.008-.05.02-.074.031-.024.016-.043.028-.063.043-.02.016-.035.035-.05.055-.016.02-.032.039-.044.062a.522.522 0 0 0-.043.149c0 .012-.003.023-.003.035v.422A1.794 1.794 0 0 0 4 22.199C4 23.191 4.809 24 5.8 24c.993 0 1.802-.809 1.802-1.8 0-.782-.504-1.442-1.204-1.688v-.196l4.403-1.011v.129l-.969.968c-.012 0-.02-.004-.031-.004-.992 0-1.801.809-1.801 1.801C8 23.191 8.809 24 9.8 24c.993 0 1.802-.809 1.802-1.8 0-.66-.364-1.231-.891-1.544l.656-.656h1.266l.656.656c-.527.313-.89.883-.89 1.543 0 .992.808 1.801 1.8 1.801S16 23.191 16 22.2c0-.993-.809-1.802-1.8-1.802-.012 0-.02.004-.032.004l-.969-.968v-.13l4.403 1.012v.196c-.7.246-1.204.906-1.204 1.687 0 .992.809 1.801 1.801 1.801.992 0 1.801-.809 1.801-1.8 0-.923-.703-1.68-1.602-1.778V20c0-.012-.003-.023-.003-.035a.553.553 0 0 0-.043-.149c-.012-.023-.028-.043-.043-.062-.016-.02-.032-.04-.051-.055-.02-.015-.04-.027-.063-.043a.423.423 0 0 0-.074-.031c-.012-.004-.02-.012-.031-.016L13.2 18.48V18h-.802v-.8h.801V16h.403v-1.035l1.316 1.316c.035.04.078.067.129.09.05.02.101.027.152.027h1.2a.398.398 0 1 0 0-.796h-1.032l-.8-.801H17c.566 0 1.055-.344 1.273-.828A2 2 0 0 0 20 12v-.8c.66 0 1.2-.54 1.2-1.2 0-.66-.54-1.2-1.2-1.2zM6.8 22.2c0 .55-.448 1-1 1-.55 0-1-.45-1-1 0-.552.45-1 1-1 .552 0 1 .448 1 1zm3 1c-.55 0-1-.45-1-1 0-.552.45-1 1-1 .552 0 1 .448 1 1 0 .55-.448 1-1 1zm5.4-1c0 .55-.45 1-1 1-.552 0-1-.45-1-1 0-.552.448-1 1-1 .55 0 1 .448 1 1zm4 0c0 .55-.45 1-1 1-.552 0-1-.45-1-1 0-.552.448-1 1-1 .55 0 1 .448 1 1zm-7.598-3.4h.796v.4h-.796zM7.203 5.622A.399.399 0 0 0 8 5.601a.398.398 0 1 0-.762-.168l.344-1.835c.008 0 .012.004.02.004.218 0 .398-.18.398-.403a.4.4 0 0 0-.273-.375l.253-1.37A.805.805 0 0 1 8.773.8h.829a.398.398 0 1 0 .796 0H12a.4.4 0 0 0 .8 0h1.598a.401.401 0 0 0 .801 0h.028c.386 0 .722.273.793.652l.027.156c-.016 0-.031-.007-.047-.007a.395.395 0 0 0-.398.398.395.395 0 0 0 .585.348l.981 5.257a.396.396 0 0 0 .031.793c.04 0 .074-.011.11-.02l.277 1.477a.826.826 0 0 1-.023.38.403.403 0 0 0-.364-.235.4.4 0 0 0-.168.762.822.822 0 0 1-.238.039H7.207a.795.795 0 0 1-.621-.293.79.79 0 0 1-.172-.653l.05-.27a.395.395 0 0 0 .337-.386.395.395 0 0 0-.203-.34zM12.398 12h-.796v-.398h.796zm-8.796-2c0-.219.175-.398.398-.398h.8a.4.4 0 0 1 .4.398.4.4 0 0 1-.4.398H4A.398.398 0 0 1 3.602 10zM4.8 12v-.8c.398 0 .746-.196.965-.497a1.61 1.61 0 0 0 1.441.898h3.594V12H7c-.68 0-1.25.488-1.375 1.137A1.202 1.202 0 0 1 4.801 12zm8 3.2h-1.602v-.4h1.602zm-.403 1.198h-.796V16h.796zM17 14H7a.602.602 0 0 1-.602-.602c0-.328.27-.597.602-.597h10c.332 0 .602.27.602.597 0 .332-.27.602-.602.602zm2.2-2c0 .531-.348.977-.825 1.137A1.403 1.403 0 0 0 17 12h-3.8v-.398h3.593a1.61 1.61 0 0 0 1.441-.899c.22.3.567.496.965.496zm.8-1.602h-.8a.4.4 0 0 1-.4-.398.4.4 0 0 1 .4-.398h.8a.398.398 0 1 1 0 .796zm0 0"/>
    <path d="M9.2 2c0 .223-.18.398-.4.398a.398.398 0 1 1 0-.796c.22 0 .4.175.4.398zm0 0M9.2 4.398a.401.401 0 1 1-.803.003.401.401 0 0 1 .802-.003zm0 0M10.398 3.2a.398.398 0 1 1-.796 0 .398.398 0 1 1 .796 0zm0 0M10.398 5.602a.398.398 0 1 1-.796 0 .398.398 0 1 1 .796 0zm0 0M11.602 2c0 .223-.18.398-.403.398a.398.398 0 1 1 0-.796c.223 0 .403.175.403.398zm0 0M14 2c0 .223-.18.398-.398.398a.398.398 0 1 1 0-.796c.218 0 .398.175.398.398zm0 0M11.602 4.398a.401.401 0 1 1 0 0zm0 0M14 4.398a.401.401 0 1 1-.802.003.401.401 0 0 1 .802-.003zm0 0M12.8 3.2a.401.401 0 1 1 0 0zm0 0M15.2 3.2a.401.401 0 1 1-.803.002.401.401 0 0 1 .802-.003zm0 0M12.8 5.602A.401.401 0 1 1 12 5.597a.401.401 0 0 1 .802.005zm0 0M15.2 5.602a.4.4 0 1 1-.801-.004.4.4 0 0 1 .8.004zm0 0M16.398 4.398a.398.398 0 1 1-.796 0 .398.398 0 1 1 .796 0zm0 0M9.2 6.8a.4.4 0 1 1-.801-.003.4.4 0 0 1 .8.004zm0 0M9.2 9.2a.401.401 0 1 1-.803.002.401.401 0 0 1 .802-.003zm0 0M8 8c0 .223-.18.398-.398.398a.398.398 0 1 1 0-.796C7.82 7.602 8 7.777 8 8zm0 0M10.398 8a.395.395 0 0 1-.398.398A.395.395 0 0 1 9.602 8c0-.223.175-.398.398-.398.223 0 .398.175.398.398zm0 0M8 10.398a.401.401 0 1 1-.802.003.401.401 0 0 1 .802-.003zm0 0M10.398 10.398a.398.398 0 1 1-.796 0 .398.398 0 1 1 .796 0zm0 0M11.602 6.8a.401.401 0 1 1-.802-.004.401.401 0 0 1 .802.005zm0 0M14 6.8a.4.4 0 1 1-.8-.003.4.4 0 0 1 .8.004zm0 0M11.602 9.2a.401.401 0 1 1 0 0zm0 0M14 9.2a.401.401 0 1 1-.802.002.401.401 0 0 1 .802-.003zm0 0M12.8 8c0 .223-.179.398-.402.398a.398.398 0 1 1 0-.796c.223 0 .403.175.403.398zm0 0M15.2 8c0 .223-.18.398-.4.398a.398.398 0 1 1 0-.796c.22 0 .4.175.4.398zm0 0M12.8 10.398a.401.401 0 1 1 0 0zm0 0M15.2 10.398a.401.401 0 1 1-.803.003.401.401 0 0 1 .802-.003zm0 0M16.398 6.8a.398.398 0 1 1-.796 0 .398.398 0 1 1 .796 0zm0 0M16.398 9.2a.398.398 0 1 1-.796 0 .398.398 0 1 1 .796 0zm0 0"/>
</svg>
